X: 1274
T: An Fathach Tireannach
R: jig
M: 6/8
K: Amajor
|:EAA ABd|cBc dBA|EAA ABd|cBA ~F3|
EAA ABd|cBc dcA|~c3 dcB|ABA A3:|
|:edc dcB|c2d cBA|edc dcB|cBA ~B3|
edc dcB|c2d cBA|~c3dcB|ABA A3:|

